X:50
T:Lydia has no Faith in Cats
C:Ed Yother
C:c.2005
C:http://edyother.com
M:6/8
L:1/8
R:jig
K:Bm
FBB dBc | ded cBA | eAA cAc | dcB AFE |
FBB dBc | ded cBA | gfe dAB | cdc B2B :|
|: fdd Bdd | FBd fed | ecc Acc | EAc edc |
dcd ede | fdf b2b | afd eAB | cdc B2B:|

